X:1
T:Regina coeli - Lotti
T:James Gibb editions
T:#
%%score [ 1 2 3 4 ]
L:1/8
Q:1/4=240
M:none
K:C
V:1 treble nm="Soprano" snm="S"
V:2 treble nm="Alto" snm="A"
V:3 treble-8 nm="Tenor" snm="T"
V:4 bass nm="Bass" snm="B"
V:1
"^Regina coeli""^Antonio Lotti\n(1667-1740)" c8 c4 B4 | c8 c4 d4 | e6 d2 c4 B4 | c8 G4 c4 | %4
w: Re- gi- na|coe- li lae-|ta- re, al- le-|lu- ia, lae-|
 e6 e2 e4 d4 | c8 c8 | c8 c4 c4 | c4 c4 c4 c2 c2 | B8 A8 | B6 B2 c8 | B4 c4 A6 A2 | B16 | %12
w: ta- re, al- le-|lu- ia.|Qui- a quem|me- ru- i- sti por-|ta- re,|al- le- lu-|ia, al- le- lu-|ia.|
 B6 B2 B4 B4 | B4 B4 B8 | B16 | B6 B2 c4 c4 | B8 B6 B2 | B16 | z16 | z16 | c16 | B12 B4 | A8 A8 | %23
w: Re- sur- re- xit,|si- cut di-|xit,|al- le- lu- ia,|al- le- lu-|ia.|||O-|ra pro|no- bis|
 G16 | G16 | G6 G2 d4 d4 |[Q:1/4=236] c6[Q:1/4=231] c2[Q:1/4=228] d4[Q:1/4=224] B4 | %27
w: De-|um,|al- le- lu- ia,|al- le- lu- ia,|
[Q:1/4=217] c8[Q:1/4=211] c4[Q:1/4=207] B4 |[Q:1/4=205] c16 |] %29
w: al- le- lu-|ia.|
V:2
 G8 G4 G4 | G8 G4 G4 | G6 F2 G4 G4 | G8 E4 G4 | G6 G2 G4 G4 | G8 G8 | E8 E4 E4 | A4 A4 A4 G2 A2 | %8
w: Re- gi- na|coe- li lae-|ta- re, al- le-|lu- ia, lae-|ta- re, al- le-|lu- ia.|Qui- a quem|me- ru- i- sti por-|
 G8 ^F8 | G6 G2 (G6 A2) | G4 G4 G4 ^F4 | G16 | G6 G2 ^F4 F4 | G4 G4 G8 | ^F16 | G6 G2 E4 E4 | %16
w: ta- re,|al- le- lu\- *|ia, al- le- lu-|ia.|Re- sur- re- xit,|si- cut di-|xit,|al- le- lu- ia,|
 G8 ^F6 F2 | G16 | z16 | G16- | G8 ^F4 F4 | G8 G8 | (D16- | D8 E8) | D16 | E6 E2 G4 G4 | %26
w: al- le- lu-|ia.||O\-|* ra pro|no- bis|De\-||um,|al- le- lu- ia,|
 G6 G2 G4 G4 | G8 G6 G2 | G16 |] %29
w: al- le- lu- ia,|al- le- lu-|ia.|
V:3
 e8 e4 d4 | e8 e4 B4 | e6 f2 e4 d4 | e8 c4 e4 | c6 c2 c4 d4 | e8 e8 | c8 c4 c4 | d4 d4 d4 e2 d2 | %8
w: Re- gi- na|coe- li lae-|ta- re, al- le-|lu- ia, lae-|ta- re, al- le-|lu- ia.|Qui- a quem|me- ru- i- sti por-|
 d8 d8 | d6 d2 e8 | d4 e4 d6 d2 | d16 | e6 e2 ^d4 B4 | e4 e4 e8 | ^d16 | e6 e2 c4 c4 | e8 e4 ^d4 | %17
w: ta- re,|al- le- lu-|ia, al- le- lu-|ia.|Re- sur- re- xit,|si- cut di-|xit,|al- le- lu- ia,|al- le- lu-|
 e16 | e16 | d12 d4 | c8 c8 | (d8 B8 | c16 | B8 c8) | B16 | c6 c2 d4 B4 | e6 e2 d4 d4 | e8 d6 d2 | %28
w: ia.|O-|ra pro|no- bis|De\- *|||um,|al- le- lu- ia,|al- le- lu- ia,|al- le- lu-|
 e16 |] %29
w: ia.|
V:4
 C,8 E,4 G,4 | C8 C4 G,4 | C4 (C,2 D,2) E,4 G,4 | C8 C,4 C,4 | C6 C2 C4 B,4 | C8 C,8 | %6
w: Re- gi- na|coe- li lae-|ta- re, * al- le-|lu- ia, lae-|ta- re, al- le-|lu- ia.|
 A,8 A,4 A,4 | ^F,4 F,4 F,4 E,2 F,2 | G,8 D,8 | G,6 G,2 (C,2 D,2 E,2 ^F,2) | G,4 C,4 D,6 D,2 | %11
w: Qui- a quem|me- ru- i- sti por-|ta- re,|al- le- lu\- * * *|ia, al- le- lu-|
 G,,16 | E,6 E,2 B,4 ^D,4 | E,4 E,4 G,4 E,4 | B,8 B,8 | G,6 G,2 A,4 A,4 | E,8 B,,6 B,,2 | E,16 | %18
w: ia.|Re- sur- re- xit,|si- cut di- xit,|di- xit,|al- le- lu- ia,|al- le- lu-|ia.|
 C16 | B,12 B,4 | A,8 A,8 | (G,16 | ^F,16 | G,8 C,8) | G,16 | C6 C2 B,4 G,4 | C6 C2 B,4 G,4 | %27
w: O-|ra pro|no- bis|De\-|||um,|al- le- lu- ia,|al- le- lu- ia,|
 C8 G,6 G,2 | C,16 |] %29
w: al- le- lu-|ia.|

